static/images/Generic-Podcast-Art.svg

<?xml version="1.0" encoding="UTF-8" standalone="no"?><!DOCTYPE svg PUBLIC "-//W3C//DTD SVG 1.1//EN" "http://www.w3.org/Graphics/SVG/1.1/DTD/svg11.dtd"><svg width="100%" height="100%" viewBox="0 0 1809 1809" version="1.1" xmlns="http://www.w3.org/2000/svg" xmlns:xlink="http://www.w3.org/1999/xlink" xml:space="preserve" xmlns:serif="http://www.serif.com/" style="fill-rule:evenodd;clip-rule:evenodd;stroke-linejoin:round;stroke-miterlimit:2;"><g id="Do-not-Disturb" serif:id="Do not Disturb"><path d="M1804.91,208.333c0,-114.983 -93.35,-208.333 -208.333,-208.333l-1388.24,0c-114.983,0 -208.333,93.35 -208.333,208.333l0,1388.24c0,114.983 93.35,208.333 208.333,208.333l1388.24,0c114.983,0 208.333,-93.35 208.333,-208.333l0,-1388.24Z" style="fill:#ddd;fill-opacity:0.6;"/></g><path id="Radio-Wave" serif:id="Radio Wave" d="M1075.32,1171.1c-12.671,0.009 -25.038,-6.296 -32.213,-17.712c-11.012,-17.625 -5.625,-40.775 12.184,-51.759c52.962,-32.75 87.179,-102.054 87.129,-176.5c-0.05,-74.491 -34.363,-143.704 -87.371,-176.429c-17.821,-10.908 -23.242,-34.05 -12.25,-51.692c10.988,-17.541 34.35,-23.17 52.121,-12.108c75.875,46.738 123.125,138.733 123.196,240.179c0.066,101.396 -47.054,193.454 -122.871,240.346c-6.254,3.863 -13.113,5.671 -19.925,5.675Zm106.35,155.104c-13.225,0.013 -26.146,-6.541 -33.621,-18.462c-11.521,-18.375 -5.837,-42.575 12.675,-54.013c101.138,-62.437 163.879,-188.425 163.783,-328.746c-0.091,-140.316 -63.008,-266.166 -164.229,-328.47c-18.529,-11.459 -24.246,-35.6 -12.754,-54.046c11.496,-18.342 35.763,-23.917 54.392,-12.609c124.191,76.513 201.404,227.9 201.516,395.076c0.117,167.17 -76.891,318.716 -200.979,395.395c-6.504,3.963 -13.666,5.871 -20.783,5.875Zm133.608,165.709c-13.216,0.012 -26.141,-6.542 -33.621,-18.463c-11.516,-18.375 -5.829,-42.575 12.684,-54.012c152.737,-94.384 247.529,-283.863 247.383,-494.571c-0.142,-210.704 -95.192,-400.154 -248.058,-494.334c-18.525,-11.408 -24.246,-35.55 -12.754,-53.995c11.491,-18.392 35.762,-23.971 54.391,-12.663c175.888,108.392 285.234,323.279 285.396,560.938c0.163,237.558 -108.892,452.595 -284.629,561.225c-6.508,3.962 -13.675,5.87 -20.792,5.875Zm-303.404,-566.705c0.038,51.7 -42.171,93.659 -94.25,93.696c-52.079,0.034 -94.346,-41.866 -94.379,-93.566c-0.038,-51.7 42.171,-93.659 94.25,-93.696c52.079,-0.034 94.346,41.866 94.379,93.566Zm-256.537,246.109c-6.813,0.004 -13.675,-1.792 -19.934,-5.646c-75.879,-46.788 -123.129,-138.783 -123.196,-240.179c-0.07,-101.446 47.055,-193.504 122.867,-240.346c17.808,-11.083 41.175,-5.492 52.138,12.037c11.012,17.625 5.625,40.775 -12.18,51.709c-52.966,32.796 -87.183,102.054 -87.133,176.546c0.054,74.445 34.363,143.704 87.371,176.383c17.825,10.958 23.242,34.1 12.254,51.742c-7.158,11.425 -19.517,17.745 -32.187,17.754Zm-106.138,155.25c-7.117,0.008 -14.283,-1.892 -20.792,-5.846c-124.191,-76.513 -201.408,-227.95 -201.52,-395.125c-0.113,-167.171 76.891,-318.667 200.979,-395.346c18.512,-11.387 42.837,-5.842 54.408,12.538c11.517,18.425 5.833,42.575 -12.679,54.062c-101.138,62.438 -163.879,188.375 -163.783,328.692c0.095,140.321 63.008,266.221 164.233,328.525c18.525,11.408 24.242,35.6 12.75,53.991c-7.463,11.93 -20.371,18.5 -33.596,18.509Zm-133.387,165.891c-7.113,0.005 -14.284,-1.891 -20.796,-5.845c-175.884,-108.392 -285.234,-323.28 -285.396,-560.838c-0.163,-237.658 108.896,-452.696 284.629,-561.325c18.567,-11.383 42.846,-5.792 54.413,12.588c11.516,18.429 5.829,42.579 -12.684,54.012c-152.733,94.388 -247.525,283.967 -247.383,494.671c0.146,210.708 95.196,400.058 248.058,494.233c18.529,11.413 24.25,35.604 12.754,53.996c-7.458,11.929 -20.375,18.5 -33.595,18.508Z"/></svg>

<?xml version="1.0" encoding="UTF-8" standalone="no"?>
<!DOCTYPE svg PUBLIC "-//W3C//DTD SVG 1.1//EN" "http://www.w3.org/Graphics/SVG/1.1/DTD/svg11.dtd">
<svg width="100%" height="100%" viewBox="0 0 1809 1809" version="1.1" xmlns="http://www.w3.org/2000/svg" xmlns:xlink="http://www.w3.org/1999/xlink" xml:space="preserve" xmlns:serif="http://www.serif.com/" style="fill-rule:evenodd;clip-rule:evenodd;stroke-linejoin:round;stroke-miterlimit:2;">
    <g id="Do-not-Disturb" serif:id="Do not Disturb">
        <path d="M1809,1809C1807.94,1805.62 1810.19,0 1809,0L0,0C-0.063,1.127 0,1809 0,1809C2.253,1810.19 1809,1809 1809,1809Z" style="fill:rgb(221,221,221);fill-opacity:0.6;"/>
    </g>
    <path id="Radio-Wave" serif:id="Radio Wave" d="M1075.32,1171.1C1062.65,1171.11 1050.28,1164.8 1043.11,1153.39C1032.1,1135.76 1037.48,1112.61 1055.29,1101.63C1108.25,1068.88 1142.47,999.575 1142.42,925.129C1142.37,850.638 1108.06,781.425 1055.05,748.7C1037.23,737.792 1031.81,714.65 1042.8,697.008C1053.79,679.467 1077.15,673.838 1094.92,684.9C1170.8,731.638 1218.05,823.633 1218.12,925.079C1218.18,1026.47 1171.06,1118.53 1095.25,1165.42C1088.99,1169.29 1082.13,1171.1 1075.32,1171.1ZM1181.67,1326.2C1168.44,1326.22 1155.52,1319.66 1148.05,1307.74C1136.53,1289.37 1142.21,1265.17 1160.72,1253.73C1261.86,1191.29 1324.6,1065.3 1324.51,924.983C1324.42,784.667 1261.5,658.817 1160.28,596.513C1141.75,585.054 1136.03,560.913 1147.52,542.467C1159.02,524.125 1183.29,518.55 1201.92,529.858C1326.11,606.371 1403.32,757.758 1403.43,924.934C1403.55,1092.1 1326.54,1243.65 1202.45,1320.33C1195.95,1324.29 1188.79,1326.2 1181.67,1326.2ZM1315.28,1491.91C1302.06,1491.92 1289.14,1485.37 1281.66,1473.45C1270.14,1455.08 1275.83,1430.88 1294.34,1419.44C1447.08,1325.05 1541.87,1135.58 1541.72,924.867C1541.58,714.163 1446.53,524.713 1293.67,430.533C1275.14,419.125 1269.42,394.983 1280.91,376.538C1292.4,358.146 1316.67,352.567 1335.3,363.875C1511.19,472.267 1620.54,687.154 1620.7,924.813C1620.86,1162.37 1511.81,1377.41 1336.07,1486.04C1329.56,1490 1322.39,1491.91 1315.28,1491.91ZM1011.87,925.208C1011.91,976.908 969.703,1018.87 917.624,1018.9C865.545,1018.94 823.278,977.038 823.245,925.338C823.207,873.638 865.416,831.679 917.495,831.642C969.574,831.608 1011.84,873.508 1011.87,925.208ZM755.337,1171.32C748.524,1171.32 741.662,1169.53 735.403,1165.67C659.524,1118.88 612.274,1026.89 612.207,925.492C612.137,824.046 659.262,731.988 735.074,685.146C752.882,674.063 776.249,679.654 787.212,697.183C798.224,714.808 792.837,737.958 775.032,748.892C722.066,781.688 687.849,850.946 687.899,925.438C687.953,999.883 722.262,1069.14 775.27,1101.82C793.095,1112.78 798.512,1135.92 787.524,1153.56C780.366,1164.99 768.007,1171.31 755.337,1171.32ZM649.199,1326.57C642.082,1326.58 634.916,1324.67 628.407,1320.72C504.216,1244.21 426.999,1092.77 426.887,925.596C426.774,758.425 503.778,606.929 627.866,530.25C646.378,518.863 670.703,524.408 682.274,542.788C693.791,561.213 688.107,585.363 669.595,596.85C568.457,659.288 505.716,785.225 505.812,925.542C505.907,1065.86 568.82,1191.76 670.045,1254.07C688.57,1265.48 694.287,1289.67 682.795,1308.06C675.332,1319.99 662.424,1326.56 649.199,1326.57ZM515.812,1492.46C508.699,1492.46 501.528,1490.57 495.016,1486.61C319.132,1378.22 209.782,1163.33 209.62,925.775C209.457,688.117 318.516,473.079 494.249,364.45C512.816,353.067 537.095,358.658 548.662,377.038C560.178,395.467 554.491,419.617 535.978,431.05C383.245,525.438 288.453,715.017 288.595,925.721C288.741,1136.43 383.791,1325.78 536.653,1419.95C555.182,1431.37 560.903,1455.56 549.407,1473.95C541.949,1485.88 529.032,1492.45 515.812,1492.46Z"/>
</svg>
